svg/emoji_u1f686.svg

<?xml version="1.0" encoding="UTF-8" standalone="no"?>
<svg
   xmlns:dc="http://purl.org/dc/elements/1.1/"
   xmlns:cc="http://creativecommons.org/ns#"
   xmlns:rdf="http://www.w3.org/1999/02/22-rdf-syntax-ns#"
   xmlns:svg="http://www.w3.org/2000/svg"
   xmlns="http://www.w3.org/2000/svg"
   xmlns:xlink="http://www.w3.org/1999/xlink"
   xmlns:sodipodi="http://sodipodi.sourceforge.net/DTD/sodipodi-0.dtd"
   xmlns:inkscape="http://www.inkscape.org/namespaces/inkscape"
   width="128"
   height="128"
   style="enable-background:new 0 0 128 128;"
   version="1.1"
   id="svg32"
   sodipodi:docname="emoji_u1f686.svg"
   inkscape:version="0.92.2 (5c3e80d, 2017-08-06)">
  <metadata
     id="metadata38">
    <rdf:RDF>
      <cc:Work
         rdf:about="">
        <dc:format>image/svg+xml</dc:format>
        <dc:type
           rdf:resource="http://purl.org/dc/dcmitype/StillImage" />
      </cc:Work>
    </rdf:RDF>
  </metadata>
  <defs
     id="defs36">
    <defs
       id="defs9">
      <path
         inkscape:connector-curvature="0"
         d="m 113.87,17.12 c -0.11,-2.13 -1.57,-4.97 -3.24,-6.3 0,0 -12.97,-10.37 -47.3,-10.37 C 29,0.45 17.27,10.69 17.27,10.69 15.66,12.1 14.25,15 14.14,17.13 l -2.72,50.76 c -0.11,2.14 -0.21,5.63 -0.21,7.77 v 31.77 c 0,2.14 1.75,3.89 3.89,3.89 h 97.82 c 2.14,0 3.89,-1.75 3.89,-3.89 V 75.64 c 0,-2.14 -0.09,-5.63 -0.21,-7.77 z"
         id="SVGID_1_" />
    </defs>
    <clipPath
       id="SVGID_2_">
      <use
         height="100%"
         width="100%"
         y="0"
         x="0"
         id="use13"
         xlink:href="#SVGID_1_"
         style="overflow:visible" />
    </clipPath>
  </defs>
  <sodipodi:namedview
     pagecolor="#ffffff"
     bordercolor="#666666"
     inkscape:document-rotation="0"
     borderopacity="1"
     objecttolerance="10"
     gridtolerance="10"
     guidetolerance="10"
     inkscape:pageopacity="0"
     inkscape:pageshadow="2"
     inkscape:window-width="1920"
     inkscape:window-height="1046"
     id="namedview34"
     showgrid="false"
     inkscape:snap-bbox="true"
     inkscape:bbox-paths="true"
     inkscape:bbox-nodes="true"
     showguides="true"
     inkscape:guide-bbox="true"
     inkscape:snap-bbox-edge-midpoints="true"
     inkscape:snap-bbox-midpoints="false"
     inkscape:object-paths="true"
     inkscape:snap-intersection-paths="false"
     inkscape:snap-smooth-nodes="true"
     inkscape:snap-midpoints="false"
     inkscape:snap-object-midpoints="false"
     inkscape:snap-center="false"
     inkscape:snap-nodes="true"
     inkscape:object-nodes="true"
     inkscape:zoom="3.8504174"
     inkscape:cx="44.02456"
     inkscape:cy="67.429172"
     inkscape:window-x="-11"
     inkscape:window-y="-11"
     inkscape:window-maximized="1"
     inkscape:current-layer="svg32" />
  <g
     id="g4284"
     transform="translate(10.720714)">
    <path
       d="m 75.23821,120.95 c 0,3.64 1.625229,6.6 3.630597,6.6 v 0 c 2.00537,0 3.6306,-2.96 3.6306,-6.6 V 94.23 c 0,-3.63 -1.62523,-6.59 -3.6306,-6.59 v 0 c -2.005368,0 -3.630597,2.96 -3.630597,6.59 z"
       style="fill:#2f2f2f;stroke-width:1"
       id="path2"
       inkscape:connector-curvature="0" />
    <path
       d="m 31.880834,120.95 c 0,3.64 -1.750677,6.6 -3.910834,6.6 v 0 c -2.160157,0 -3.910834,-2.96 -3.910834,-6.6 V 94.23 c 0,-3.63 1.750677,-6.59 3.910834,-6.59 v 0 c 2.160157,0 3.910834,2.96 3.910834,6.59 z"
       style="fill:#2f2f2f;stroke-width:1"
       id="path4"
       inkscape:connector-curvature="0" />
  </g>
  <path
     style="opacity:1;fill:#1a297e;fill-opacity:1;stroke:none;stroke-width:3.77952766;stroke-linecap:butt;stroke-linejoin:round;stroke-miterlimit:4;stroke-dasharray:none;stroke-dashoffset:0;stroke-opacity:1"
     d="M 54.138672 3.7617188 C 40.178286 3.7617187 31.924863 9.9738116 27.035156 18.587891 L 27.035156 54.787109 L 27.035156 60.626953 L 27.035156 61.640625 C 27.035156 64.189025 29.086366 66.240234 31.634766 66.240234 L 96.394531 66.240234 C 98.942931 66.240234 100.99414 64.189025 100.99414 61.640625 L 100.99414 60.626953 L 100.99414 54.787109 L 100.99414 16.542969 C 102.28722 18.490739 103.37923 20.591999 104.29883 22.794922 C 99.822579 12.068689 91.30165 3.7617188 75.050781 3.7617188 L 54.138672 3.7617188 z M 27.023438 18.609375 C 26.6152 19.329703 26.233592 20.068606 25.871094 20.820312 C 26.233648 20.068586 26.615196 19.329753 27.023438 18.609375 z M 25.705078 21.173828 C 25.389078 21.84578 25.088885 22.527828 24.806641 23.220703 C 25.088967 22.527854 25.389033 21.845776 25.705078 21.173828 z M 104.30078 22.804688 C 104.60194 23.526586 104.8848 24.257968 105.15039 25 C 104.885 24.258277 104.60172 23.52627 104.30078 22.804688 z M 24.660156 23.585938 C 24.367046 24.323911 24.091749 25.070859 23.833984 25.828125 C 24.091665 25.071631 24.36723 24.323194 24.660156 23.585938 z M 105.18555 25.105469 C 105.4455 25.837046 105.69025 26.576721 105.91797 27.324219 C 105.69026 26.576346 105.44554 25.837388 105.18555 25.105469 z M 105.91797 27.324219 C 106.14932 28.083647 106.36417 28.850738 106.56445 29.623047 C 106.36423 28.850491 106.14927 28.083875 105.91797 27.324219 z M 23.769531 26.011719 C 22.912982 28.560172 22.246084 31.201466 21.730469 33.873047 C 22.2468 31.20251 22.912659 28.559299 23.769531 26.011719 z M 106.5918 29.728516 C 106.78713 30.48735 106.9691 31.251857 107.13672 32.019531 C 106.96911 31.251243 106.78715 30.487947 106.5918 29.728516 z M 107.14453 32.056641 C 107.31616 32.844812 107.47443 33.635878 107.61914 34.429688 C 107.47453 33.635659 107.31606 32.845031 107.14453 32.056641 z M 107.61914 34.429688 C 107.76516 35.230658 107.89857 36.032977 108.01953 36.835938 C 107.89868 36.032851 107.76504 35.230793 107.61914 34.429688 z M 108.01953 36.835938 C 108.14049 37.638898 108.2494 38.442958 108.34766 39.244141 C 108.24943 38.442182 108.14049 37.639693 108.01953 36.835938 z M 108.34766 39.244141 C 108.52072 40.655281 108.65489 42.057779 108.76758 43.447266 C 108.65491 42.055504 108.5208 40.657728 108.34766 39.244141 z M 21.707031 33.998047 C 21.54985 34.820088 21.405761 35.643958 21.275391 36.46875 C 21.406052 35.643874 21.549553 34.820173 21.707031 33.998047 z M 21.216797 36.857422 C 21.105232 37.585545 21.002973 38.312297 20.910156 39.039062 C 21.003133 38.313052 21.105105 37.584784 21.216797 36.857422 z M 20.84375 39.560547 C 20.752678 40.30694 20.66924 41.049783 20.595703 41.791016 C 20.669484 41.049822 20.752426 40.306895 20.84375 39.560547 z M 20.5625 42.119141 C 20.527867 42.479647 20.501572 42.83277 20.470703 43.191406 C 20.50163 42.833523 20.527822 42.478885 20.5625 42.119141 z M 108.86328 44.820312 C 108.9465 46.021611 109.01864 47.215887 109.06836 48.380859 C 109.01858 47.211813 108.9467 46.026098 108.86328 44.820312 z M 20.228516 46.541016 C 20.214468 46.781894 20.194317 47.024342 20.181641 47.263672 C 20.194335 47.025449 20.21446 46.780772 20.228516 46.541016 z M 109.09961 49.175781 C 109.14916 50.500288 109.18694 51.807265 109.20703 53.060547 C 109.18684 51.800747 109.14939 50.507973 109.09961 49.175781 z M 109.20703 53.060547 L 109.20703 64.464844 C 109.20703 69.561644 105.10461 73.666016 100.00781 73.666016 L 29.138672 73.666016 C 24.041872 73.666016 19.939453 69.561644 19.939453 64.464844 L 19.939453 80.470703 C 19.939453 99.27713 35.191871 114.41797 54.138672 114.41797 L 75.050781 114.41797 C 93.997582 114.41797 109.25195 99.27713 109.25195 80.470703 L 109.25195 59.138672 C 109.25195 57.280779 109.24152 55.212768 109.20703 53.060547 z M 20.050781 50.576172 C 20.014218 51.752642 19.989659 52.883171 19.974609 53.996094 C 19.989825 52.88762 20.01414 51.747616 20.050781 50.576172 z M 19.957031 55.033203 C 19.94346 56.468333 19.939453 57.852354 19.939453 59.138672 C 19.939453 57.852967 19.943281 56.467475 19.957031 55.033203 z "
     id="rect4279" />
  <g
     id="g4354"
     transform="translate(-3.6305985)"
     style="fill:#ffffff;fill-opacity:1">
    <path
       d="m 53.995331,84.172908 c 0,3.289643 -2.683444,5.973086 -5.981169,5.973086 -3.305807,0 -5.973086,-2.683443 -5.973086,-5.973086 0,-3.297725 2.675361,-5.973086 5.973086,-5.973086 3.305808,0 5.981169,2.675361 5.981169,5.973086 z"
       style="fill:#ffffff;stroke-width:0.99999994;fill-opacity:1"
       id="path18"
       inkscape:connector-curvature="0" />
    <path
       d="m 81.265866,84.172908 c 0,3.289643 2.675361,5.973086 5.981169,5.973086 3.297725,0 5.973086,-2.683443 5.973086,-5.973086 0,-3.297725 -2.675361,-5.973086 -5.973086,-5.973086 -3.305808,0 -5.981169,2.675361 -5.981169,5.973086 z"
       style="fill:#ffffff;stroke-width:0.99999994;fill-opacity:1"
       id="path20"
       inkscape:connector-curvature="0" />
  </g>
  <rect
     style="opacity:1;fill:#1b1b1b;fill-opacity:1;stroke:none;stroke-width:3.77952766;stroke-linecap:butt;stroke-linejoin:round;stroke-miterlimit:4;stroke-dasharray:none;stroke-dashoffset:0;stroke-opacity:1"
     id="rect4292"
     width="25.788244"
     height="15.273011"
     x="51.105877"
     y="92.74646"
     rx="5.6999998"
     ry="5.6999998" />
  <path
     style="opacity:1;fill:#64ff94;fill-opacity:1;stroke:none;stroke-width:3.77952766;stroke-linecap:butt;stroke-linejoin:round;stroke-miterlimit:4;stroke-dasharray:none;stroke-dashoffset:0;stroke-opacity:1"
     d="M 100.99414 16.542969 L 100.99414 54.787109 L 100.99414 60.626953 L 100.99414 61.640625 C 100.99414 64.189025 98.942931 66.240234 96.394531 66.240234 L 31.634766 66.240234 C 29.086366 66.240234 27.035156 64.189025 27.035156 61.640625 L 27.035156 60.626953 L 27.035156 54.787109 L 27.035156 18.587891 C 20.055951 30.883773 19.939453 48.079894 19.939453 59.138672 L 19.939453 64.464844 C 19.939453 69.561644 24.041872 73.666016 29.138672 73.666016 L 100.00781 73.666016 C 105.10461 73.666016 109.20703 69.561644 109.20703 64.464844 L 109.20703 53.060547 C 109.0246 41.678226 107.89229 26.933671 100.99414 16.542969 z "
     id="rect4335" />
  <path
     style="opacity:1;fill:#19ceff;fill-opacity:1;stroke:none;stroke-width:3.77952766;stroke-linecap:butt;stroke-linejoin:round;stroke-miterlimit:4;stroke-dasharray:none;stroke-dashoffset:0;stroke-opacity:1"
     d="M 37.716797 24.560547 C 34.017516 24.560547 30.913434 27.189398 30.818359 30.398438 L 27.035156 54.787109 L 27.035156 61.640625 C 27.035156 64.189025 29.086366 66.240234 31.634766 66.240234 L 96.394531 66.240234 C 98.942931 66.240234 100.99414 64.189025 100.99414 61.640625 L 100.99414 54.787109 L 97.242188 30.398438 C 96.751452 27.20986 94.034388 24.560547 90.34375 24.560547 L 37.716797 24.560547 z M 28.882812 58.910156 C 29.179111 59.174836 29.506276 59.414468 29.857422 59.625 C 29.506271 59.414442 29.179116 59.174864 28.882812 58.910156 z M 99.146484 58.910156 C 98.909493 59.121876 98.647647 59.312642 98.375 59.490234 C 98.648084 59.312459 98.909155 59.12216 99.146484 58.910156 z M 30.402344 59.917969 C 31.152823 60.278873 31.9957 60.515508 32.894531 60.595703 C 31.995697 60.515495 31.152832 60.27892 30.402344 59.917969 z M 97.048828 60.164062 C 96.476377 60.378207 95.86035 60.521346 95.214844 60.585938 C 95.860074 60.521535 96.476553 60.377875 97.048828 60.164062 z "
     id="path4331" />
  <path
     inkscape:connector-curvature="0"
     id="path28"
     style="fill:#ffffff;stroke-width:0.99999994"
     d="M 81.344855,17.422845 H 45.282388 c -1.735511,0 -3.152844,-1.410103 -3.152844,-3.152845 0,-1.742742 1.417333,-3.152844 3.152844,-3.152844 h 36.062467 c 1.742742,0 3.145613,1.410102 3.145613,3.152844 0.0072,1.742742 -1.402871,3.152845 -3.145613,3.152845 z" />
</svg>

<svg xmlns="http://www.w3.org/2000/svg" width="128" height="128"><defs><path d="M113.87 17.12c-.11-2.13-1.57-4.97-3.24-6.3 0 0-12.97-10.37-47.3-10.37S17.27 10.69 17.27 10.69c-1.61 1.41-3.02 4.31-3.13 6.44l-2.72 50.76c-.11 2.14-.21 5.63-.21 7.77v31.77a3.9 3.9 0 0 0 3.89 3.89h97.82a3.9 3.9 0 0 0 3.89-3.89V75.64c0-2.14-.09-5.63-.21-7.77z" id="a"/></defs><g fill="#2f2f2f"><path d="M85.959 120.95c0 3.64 1.625 6.6 3.63 6.6 2.006 0 3.631-2.96 3.631-6.6V94.23c0-3.63-1.625-6.59-3.63-6.59-2.006 0-3.631 2.96-3.631 6.59zM42.602 120.95c0 3.64-1.751 6.6-3.911 6.6s-3.911-2.96-3.911-6.6V94.23c0-3.63 1.75-6.59 3.91-6.59s3.912 2.96 3.912 6.59z"/></g><path d="M54.139 3.762c-13.96 0-22.214 6.212-27.104 14.826V61.64a4.59 4.59 0 0 0 4.6 4.6h64.76a4.59 4.59 0 0 0 4.6-4.6V16.543c1.292 1.948 2.384 4.049 3.304 6.252C99.823 12.069 91.302 3.762 75.05 3.762H54.139zM27.023 18.609zm-1.318 2.565zm78.596 1.63zm-79.64.782zm80.525 1.52zm.732 2.218zM23.77 26.012c-.857 2.548-1.524 5.19-2.04 7.861.517-2.67 1.183-5.314 2.04-7.861zm82.822 3.717zm.553 2.328zm.474 2.373zm.4 2.406zm.329 2.408zm-86.641-5.246zm-.49 2.86zm-.373 2.703zm-.282 2.558c-.034.36-.06.714-.091 1.072.03-.357.057-.712.091-1.072zm88.301 2.701zM20.23 46.541c-.015.24-.035.483-.047.723.012-.239.032-.483.047-.723zm88.87 2.635zm.108 3.885v11.404a9.18 9.18 0 0 1-9.2 9.201H29.14a9.18 9.18 0 0 1-9.2-9.201V80.47c0 18.806 15.253 33.947 34.2 33.947H75.05c18.947 0 34.2-15.14 34.2-33.947V59.139c0-1.858-.01-3.926-.044-6.078zm-89.156-2.485zm-.094 4.457z" fill="#1a297e" stroke-width="3.78" stroke-linejoin="round"/><g fill="#fff"><path d="M50.365 84.173c0 3.29-2.684 5.973-5.981 5.973a5.975 5.975 0 0 1-5.974-5.973 5.975 5.975 0 0 1 5.974-5.973 5.976 5.976 0 0 1 5.98 5.973zM77.635 84.173a5.981 5.981 0 0 0 5.981 5.973 5.98 5.98 0 0 0 5.974-5.973 5.975 5.975 0 0 0-5.974-5.973 5.976 5.976 0 0 0-5.98 5.973z"/></g><rect width="25.788" height="15.273" x="51.106" y="92.746" rx="5.7" ry="5.7" fill="#1b1b1b" stroke-width="3.78" stroke-linejoin="round"/><path d="M100.994 16.543V61.641a4.59 4.59 0 0 1-4.6 4.6h-64.76a4.59 4.59 0 0 1-4.599-4.6V18.587C20.056 30.885 19.94 48.08 19.94 59.14v5.326a9.18 9.18 0 0 0 9.2 9.201h70.869a9.18 9.18 0 0 0 9.199-9.201V53.06c-.182-11.383-1.315-26.127-8.213-36.518z" fill="#64ff94" stroke-width="3.78" stroke-linejoin="round"/><path d="M37.717 24.56c-3.7 0-6.804 2.63-6.899 5.838l-3.783 24.39v6.853a4.59 4.59 0 0 0 4.6 4.6h64.76a4.59 4.59 0 0 0 4.6-4.6v-6.854l-3.753-24.389c-.49-3.188-3.208-5.837-6.898-5.837H37.717zm-8.834 34.35zm70.263 0zm-68.744 1.008zm66.647.246z" fill="#19ceff" stroke-width="3.78" stroke-linejoin="round"/><path d="M81.345 17.423H45.282a3.156 3.156 0 0 1-3.152-3.153 3.156 3.156 0 0 1 3.152-3.153h36.063a3.145 3.145 0 0 1 3.145 3.153 3.14 3.14 0 0 1-3.145 3.153z" fill="#fff"/></svg>
